svg/u0030.svg

<svg viewBox="0 0 128 128" xmlns="http://www.w3.org/2000/svg">
  <linearGradient id="SVGID_1_" gradientUnits="userSpaceOnUse" x1="64.01" x2="64.01" y1="101.1927" y2="29.7355">
    <stop offset="0.4852" stop-color="#504F4F"/>
    <stop offset="1" stop-color="#757575"/>
  </linearGradient>
  <path d="M88.2,69.84c0,10.63-1.99,18.65-5.97,24.04c-3.98,5.4-10.03,8.1-18.15,8.1 c-7.99,0-14.01-2.63-18.05-7.9c-4.05-5.26-6.12-13.06-6.22-23.38V57.9c0-10.63,1.99-18.6,5.97-23.92 c3.98-5.31,10.05-7.97,18.21-7.97c8.09,0,14.12,2.59,18.1,7.77s6.02,12.93,6.12,23.26v12.8H88.2z M75.86,56.03 c0-6.94-0.95-12.03-2.84-15.26c-1.9-3.23-4.91-4.85-9.04-4.85c-4.03,0-6.99,1.53-8.89,4.6c-1.9,3.06-2.89,7.85-3,14.35v16.76 c0,6.91,0.96,12.05,2.89,15.44s4.96,5.08,9.09,5.08c3.96,0,6.89-1.57,8.79-4.7c1.89-3.13,2.89-8.03,3-14.7L75.86,56.03L75.86,56.03z " fill="url(#SVGID_1_)"/>
</svg>

<svg viewBox="0 0 128 128" xmlns="http://www.w3.org/2000/svg">
  <defs>
    <linearGradient id="SVGID_1_" gradientUnits="userSpaceOnUse" x1="64.01" x2="64.01" y1="101.1927" y2="29.7355">
      <stop offset="0.4852" stop-color="#504F4F"/>
      <stop offset="1" stop-color="#757575"/>
    </linearGradient>
  </defs>
  <path d="M88.2,69.84 C88.2,80.47 86.21,88.49 82.23,93.88 C78.25,99.28 72.2,101.98 64.08,101.98 C56.09,101.98 50.07,99.35 46.03,94.08 C41.98,88.82 39.91,81.02 39.81,70.7 L39.81,57.9 C39.81,47.27 41.8,39.3 45.78,33.98 C49.76,28.67 55.83,26.01 63.99,26.01 C72.08,26.01 78.11,28.6 82.09,33.78 C86.07,38.96 88.11,46.71 88.21,57.04 L88.21,69.84 L88.2,69.84 Z M75.86,56.03 C75.86,49.09 74.91,44 73.02,40.77 C71.12,37.54 68.11,35.92 63.98,35.92 C59.95,35.92 56.99,37.45 55.09,40.52 C53.19,43.58 52.2,48.37 52.09,54.87 L52.09,71.63 C52.09,78.54 53.05,83.68 54.98,87.07 C56.91,90.46 59.94,92.15 64.07,92.15 C68.03,92.15 70.96,90.58 72.86,87.45 C74.75,84.32 75.75,79.42 75.86,72.75 L75.86,56.03 L75.86,56.03 Z" fill="url(#SVGID_1_)"/>
</svg>
